X: 12107
T: Eva
R: strathspey
M: 4/4
K: Edorian
[M:6/4]
[L:1/4]
e c|:B E G3 d/d/|f f/d/ G3 G/F/|e A A G G/A/ (3A/G/E/|G A A2 e>c|
B E G3 d/d/|f f/d/ G3 G/F/|e A A G/E/ A>G|1 E4 e c:|2 E6||
|:e4-e e/f/|g/f/ e d B G E|A4-A e/f/|g/f/ e d B d e|
e4-e e/f/|g/f/ e d B d e|g a e g d (3B/A/G/|1 A4-A A/G/:|2 A4 e c||

